COLOR/action 16/16/object-flip-vertical.svg

<svg height="16" width="16" xmlns="http://www.w3.org/2000/svg"><g stroke-width="1.748505" transform="translate(-31.97559 -220.36218)"><path d="m8.0097656 0-4.3886718 5.2441406h3.4882812c.0010617.5862.0003413 3.1748328-.0019531 3.8398438-.0000829.0240161.0000875.1200623 0 .1386718-.0017689.4925004-.0035121.9812908-.0019531 1.5332028h-3.5058594l4.3554687 5.244141 4.3886719-5.244141h-3.4882812c-.0009163-.505905.000391-.9469202.0019531-1.3925778.0003133-.0893813-.0004195-.190104 0-.2792968.0018132-.788881.0035378-3.2788206.0019531-3.8398438h3.505859z" fill="#e95420" transform="translate(31.97559 220.36218)"/><path d="m44.3188 231.11731-4.386963 5.24487-4.356201-5.24487h.290527l4.065674 4.89453 4.094727-4.89453z" fill="#fff" opacity="0" transform="matrix(-1 0 0 -1 79.895322 456.72436)"/><path d="m8.0097656 0-4.3886718 5.2441406h.4179687l3.9707031-4.7441406 3.9394534 4.7441406h.416015zm-4.4101562 10.755859.4160156.5h3.0898438c-.0004892-.179985-.000084-.331122 0-.5zm5.2558594 0c-.0001554.168131-.0003293.318356 0 .5h3.0703122l.417969-.5z" fill="#fff" opacity=".3" transform="translate(31.97559 220.36218)"/><path d="m39.930672 236.36218 4.38867-5.24414h-.41797l-3.9707 4.74414-3.93946-4.74414h-.41601zm4.41015-10.75586-.41601-.5h-3.089851c.000491.17999.00009.33112 0 .5zm-5.255861 0c.00016-.16813.00033-.31836 0-.5h-3.07031l-.41797.5z" opacity=".2"/></g></svg>

<?xml version="1.0" encoding="UTF-8" standalone="no"?>
<svg
   xmlns:dc="http://purl.org/dc/elements/1.1/"
   xmlns:cc="http://creativecommons.org/ns#"
   xmlns:rdf="http://www.w3.org/1999/02/22-rdf-syntax-ns#"
   xmlns:svg="http://www.w3.org/2000/svg"
   xmlns="http://www.w3.org/2000/svg"
   xmlns:sodipodi="http://sodipodi.sourceforge.net/DTD/sodipodi-0.dtd"
   xmlns:inkscape="http://www.inkscape.org/namespaces/inkscape"
   width="16"
   height="16"
   version="1.1"
   id="svg12"
   sodipodi:docname="object-rotate-left.svg"
   inkscape:version="0.92.4 (5da689c313, 2019-01-14)">
  <metadata
     id="metadata18">
    <rdf:RDF>
      <cc:Work
         rdf:about="">
        <dc:format>image/svg+xml</dc:format>
        <dc:type
           rdf:resource="http://purl.org/dc/dcmitype/StillImage" />
        <dc:title></dc:title>
      </cc:Work>
    </rdf:RDF>
  </metadata>
  <defs
     id="defs16">
    <style
       type="text/css"
       id="current-color-scheme">
   .ColorScheme-Text { color:#808080; } .ColorScheme-Highlight { color:#1d99f3; }
  </style>
    <style
       id="current-color-scheme-6"
       type="text/css">
   .ColorScheme-Text { color:#808080; }
  </style>
    <linearGradient
       id="linearGradient2484"
       x1="18.379"
       x2="18.379"
       y1="44.98"
       y2="3.0816"
       gradientTransform="matrix(.36857 0 0 .36857 -.84577 -.84577)"
       gradientUnits="userSpaceOnUse">
      <stop
         id="stop2492"
         style="stop-color:#791235"
         offset="0" />
      <stop
         id="stop2494"
         style="stop-color:#dd3b27"
         offset="1" />
    </linearGradient>
    <radialGradient
       id="radialGradient2482"
       cx="23.896"
       cy="3.99"
       r="20.397"
       gradientTransform="matrix(0 .87966 -1.1611 0 12.633 -21.084)"
       gradientUnits="userSpaceOnUse">
      <stop
         id="stop3244"
         style="stop-color:#f8b17e"
         offset="0" />
      <stop
         id="stop3246"
         style="stop-color:#e35d4f"
         offset=".26238" />
      <stop
         id="stop3248"
         style="stop-color:#c6262e"
         offset=".66094" />
      <stop
         id="stop3250"
         style="stop-color:#690b54"
         offset="1" />
    </radialGradient>
    <linearGradient
       id="linearGradient2479"
       x1="63.397"
       x2="63.397"
       y1="-12.489"
       y2="5.4676"
       gradientTransform="matrix(.74324 0 0 .74322 -38.23 10.609)"
       gradientUnits="userSpaceOnUse">
      <stop
         id="stop4875"
         style="stop-color:#fff"
         offset="0" />
      <stop
         id="stop4877"
         style="stop-color:#fff;stop-opacity:0"
         offset="1" />
    </linearGradient>
    <linearGradient
       id="linearGradient2476"
       x1="7.8322"
       x2="18.678"
       y1="10.936"
       y2="10.936"
       gradientTransform="matrix(.66608 0 0 .76587 -.5708 -.5708)"
       gradientUnits="userSpaceOnUse">
      <stop
         id="stop2434"
         style="stop-color:#fff"
         offset="0" />
      <stop
         id="stop2436"
         style="stop-color:#fff;stop-opacity:0"
         offset="1" />
    </linearGradient>
  </defs>
  <sodipodi:namedview
     pagecolor="#ffffff"
     bordercolor="#666666"
     borderopacity="1"
     objecttolerance="10"
     gridtolerance="10"
     guidetolerance="10"
     inkscape:pageopacity="0"
     inkscape:pageshadow="2"
     inkscape:window-width="1920"
     inkscape:window-height="1016"
     id="namedview14"
     showgrid="true"
     inkscape:zoom="52.4375"
     inkscape:cx="7.9821845"
     inkscape:cy="8.7628129"
     inkscape:window-x="0"
     inkscape:window-y="27"
     inkscape:window-maximized="1"
     inkscape:current-layer="g10">
    <inkscape:grid
       type="xygrid"
       id="grid837" />
  </sodipodi:namedview>
  <g
     transform="translate(-31.97559,-220.36218)"
     id="g10">
    <path
       style="fill:#e95420;fill-opacity:1;stroke-width:1.74850512"
       d="M 8.0097656 0 L 3.6210938 5.2441406 L 7.109375 5.2441406 C 7.1104367 5.8303406 7.1097163 8.4189734 7.1074219 9.0839844 C 7.107339 9.1080005 7.1075094 9.2040467 7.1074219 9.2226562 C 7.105653 9.7151566 7.1039098 10.203947 7.1054688 10.755859 L 3.5996094 10.755859 L 7.9550781 16 L 12.34375 10.755859 L 8.8554688 10.755859 C 8.8545525 10.249954 8.8558598 9.8089388 8.8574219 9.3632812 C 8.8577352 9.2738999 8.8570024 9.1731772 8.8574219 9.0839844 C 8.8592351 8.2951034 8.8609597 5.8051638 8.859375 5.2441406 L 12.365234 5.2441406 L 8.0097656 0 z "
       transform="translate(31.97559,220.36218)"
       id="path6" />
    <g
       id="g848"
       transform="rotate(-180,39.947661,228.36218)">
      <path
         style="opacity:0;fill:#ffffff;fill-opacity:1;stroke-width:1.74850512"
         d="m 44.3188,231.11731 -4.386963,5.24487 -4.356201,-5.24487 h 0.290527 l 4.065674,4.89453 4.094727,-4.89453 z"
         id="path843"
         inkscape:connector-curvature="0"
         sodipodi:nodetypes="ccccccc" />
    </g>
    <path
       style="fill:#ffffff;fill-opacity:1;stroke-width:1.74850512;opacity:0.3"
       d="M 8.0097656 0 L 3.6210938 5.2441406 L 4.0390625 5.2441406 L 8.0097656 0.5 L 11.949219 5.2441406 L 12.365234 5.2441406 L 8.0097656 0 z M 3.5996094 10.755859 L 4.015625 11.255859 L 7.1054688 11.255859 C 7.1049796 11.075874 7.1053848 10.924737 7.1054688 10.755859 L 3.5996094 10.755859 z M 8.8554688 10.755859 C 8.8553134 10.92399 8.8551395 11.074215 8.8554688 11.255859 L 11.925781 11.255859 L 12.34375 10.755859 L 8.8554688 10.755859 z "
       transform="translate(31.97559,220.36218)"
       id="path867" />
    <path
       id="path872"
       d="m 39.930672,236.36218 4.38867,-5.24414 h -0.41797 l -3.9707,4.74414 -3.93946,-4.74414 h -0.41601 z m 4.41015,-10.75586 -0.41601,-0.5 h -3.089851 c 4.91e-4,0.17999 9e-5,0.33112 0,0.5 z m -5.255861,0 c 1.6e-4,-0.16813 3.3e-4,-0.31836 0,-0.5 h -3.07031 l -0.41797,0.5 z"
       style="opacity:0.2;fill:#000000;fill-opacity:1;stroke-width:1.74850512"
       inkscape:connector-curvature="0" />
  </g>
</svg>
